X:127
T:Miss Margaret's Delight. THO5.127
M:C|
L:1/8
B:Thompson's Complete Collection of 200 Favourite Dances Vol.5
F:https://www.libraryofdance.org/manuals/1780c-Thompson-Compleat-5.pdf
Z:vmp. Peter Dunk 2024
Q:1/4=120
K:F
c|c>dc>B A>BA>G|Ffed c2 Ac|d>c B/c/d/B/ cAGF|E/F/G/A/ BA A2G:|
|:c|c>dcA Bg zB|B>cBG Ac zf|e>d c/d/_e/c/ dE FB|A2 c/B/A/G/ F3:|
W:
W:Hands 4 across ./.
W:the same back again ./:
W:lead down two Couples :/.
W:Lead up & cast off :/:
W:turn corners ./. ./:
W:and lead outsides :/. :/:

